X: 10837
T: Dreaming Sea, The
R: jig
M: 6/8
K: Adorian
|:Bd|cAA GAA|~E3 EFG|~A3 AGE|~D3 DEG|
~A3 GAG|~E3 EGE|~D3 DEG|~A3 A:|
|:Bd|cAA dcB|cBc ABc|B^AB G=AB|c2d e2d|
cAA GAA|~E3 EFG|1 ~D3 DEG|~A3 A:|2 ~A3 AGE|~D3 D||

